X:1
T:Abide with Me
T:W. H. Monk, 1823 - 1889
%%score [ 1 2 ]
L:1/8
M:4/4
K:Eb
V:1 bass nm="Tenor" snm="T"
V:2 bass nm="Bass" snm="B"
V:1
 B,4 B,2 A,2 | G,4 E,4 | E,2 B,2 B,2 B,2 | B,8 || B,4 A,2 G,2 | z8 | z8 | z8 | z8 | z8 | z8 | z8 | %12
w: A- bide with|me fast|falls the ev- en-|tide|The dark- ness||||||||
w: Swift to it's|close ebbs|out life's litt- le|day|Earth's joys grow||||||||
w: Hold thou thy|Cross be-|fore my clos- ing|eyes|Shine through the||||||||
 z8 | z8 | z8 | z8 | z8 | z8 | z8 | z8 | z8 | z8 | z8 | z8 | z8 | z8 | z8 | z8 | z8 | z8 | z8 | %31
w: |||||||||||||||||||
w: |||||||||||||||||||
w: |||||||||||||||||||
 z8 |] %32
w: |
w: |
w: |
V:2
 E,4 B,,2 B,,2 | C,4 G,,4 | A,,2 B,,2 C,2 D,2 | E,8 || E,2 D,2 C,2 B,,2 | z8 | z8 | z8 | z8 | z8 | %10
w: A- bide with|me fast|falls the ev- en-|tide|T- * dark- ness||||||
 z8 | z8 | z8 | z8 | z8 | z8 | z8 | z8 | z8 | z8 | z8 | z8 | z8 | z8 | z8 | z8 | z8 | z8 | z8 | %29
w: |||||||||||||||||||
 z8 | z8 | z8 |] %32
w: |||

